assets/angellist.svg

<?xml version="1.0" encoding="UTF-8" standalone="no"?>
<svg
   width="15"
   height="20"
   viewBox="0 0 15 20"
   fill="none"
   version="1.1"
   id="svg11"
   sodipodi:docname="angellist.svg"
   xmlns:inkscape="http://www.inkscape.org/namespaces/inkscape"
   xmlns:sodipodi="http://sodipodi.sourceforge.net/DTD/sodipodi-0.dtd"
   xmlns="http://www.w3.org/2000/svg"
   xmlns:svg="http://www.w3.org/2000/svg">
  <defs
     id="defs15" />
  <sodipodi:namedview
     id="namedview13"
     pagecolor="#ffffff"
     bordercolor="#000000"
     borderopacity="0.25"
     inkscape:showpageshadow="2"
     inkscape:pageopacity="0.0"
     inkscape:pagecheckerboard="0"
     inkscape:deskcolor="#d1d1d1"
     showgrid="false" />
  <path
     d="m 6.96416,20 c 4.69664,0 7.61914,-3.4608 7.61914,-7.9258 0,-1.6834 -0.2741,-3.20337 -2.185,-3.66003 0.465,-1.27334 1.8067,-4.95667 1.8067,-6.13667 0,-1.03917 -0.625,-1.91 -1.7392,-1.91 -1.7758,0 -3.36747,5.14417 -3.86581,6.37083 C 8.21416,5.625 6.4075,0 4.81499,0 3.57749,0 2.99666,0.894167 2.99666,2.01917 c 0,1.37916 1.36083,4.95333 1.85417,6.32833 -0.25,-0.09 -0.52084,-0.16833 -0.79667,-0.16833 -0.93167,0 -1.9225,1.13666 -1.9225,2.05503 0,0.3475 0.195,0.8358 0.31833,1.16 C 0.981661,11.785 0.416661,12.7458 0.416661,14.195 0.412495,17.015 3.13583,20 6.96416,20 Z M 10.9892,4.21917 c 0.16,-0.48084 0.84,-2.51167 1.4766,-2.51167 0.3425,0 0.4342,0.3475 0.4342,0.625 0,0.74583 -1.5358,4.8675 -1.875,5.78083 L 9.67166,7.87917 Z M 4.24666,1.8875 v -8.3e-4 c 0,-0.465 0.5775,-1.785003 1.8425,1.84 L 7.46666,7.645 C 6.84583,7.59417 6.36416,7.5275 6.05833,7.7 5.62416,6.575 4.24666,3.02417 4.24666,1.8875 Z m -0.09167,7.64333 8.4e-4,8.4e-4 c 1.16583,0 2.67083,3.69503 2.67083,4.19503 0,0.1991 -0.195,0.445 -0.42167,0.445 -0.8325,0 -3.06166,-3.0042 -3.06166,-3.8167 0.00333,-0.3008 0.505,-0.82417 0.81166,-0.82417 z m -1.34,3.05837 c 0.45334,0 2.16084,2.3558 2.16084,2.8558 0,0.1917 -0.30667,0.3242 -0.465,0.3242 -0.64084,0 -0.89167,-0.6059 -2.03334,-2.0075 -1.1825,1.16 0.81584,3.3941 2.32084,3.3941 1.03833,0 1.715,-0.945 1.5125,-1.6408 0.1475,0 0.33,0.0117 0.46583,-0.0233 0.04417,1.0583 0.3625,2.32 1.66,2.41 0,-0.035 0.08,-0.2775 0.08,-0.2892 0,-0.68 -0.42167,-1.2733 -0.42167,-1.965 0,-1.1058 0.86334,-2.1758 1.73917,-2.8008 0.31834,-0.2342 0.70504,-0.3792 1.07834,-0.5117 0.3867,-0.1442 0.7967,-0.3125 1.09,-0.6017 -0.0442,-0.4375 -0.2267,-0.8241 -0.6725,-0.8241 -1.1025,0 -4.8,0.1566 -4.8,-1.55087 0,-0.26166 0.00416,-0.51166 0.69333,-0.51166 1.28583,0 4.54997,0.3125 5.50497,1.13666 0.72,0.62917 0.9675,4.42167 -1.2341,6.82417 l -0.0025,8e-4 c -1.1584,1.25 -2.6392,1.8984 -4.3667,1.8984 -2.36417,0 -4.23167,-1.2734 -5.13084,-3.4492 -0.68083,-1.695 0.15167,-2.6683 0.82083,-2.6683 z m 4.75084,-0.7034 c 0.3875,0.1217 0.785,0.1575 1.18333,0.235 -0.295,0.2109 -0.55666,0.4692 -0.80833,0.7459 -0.11167,-0.3317 -0.2475,-0.6559 -0.375,-0.9809 z"
     fill="#505F79"
     id="path9"
     style="fill:#ffffff" />
</svg>

<svg width="15" height="20" viewBox="0 0 15 20" fill="none" xmlns="http://www.w3.org/2000/svg">
<path d="M6.96416 20C11.6608 20 14.5833 16.5392 14.5833 12.0742C14.5833 10.3908 14.3092 8.87083 12.3983 8.41417C12.8633 7.14083 14.205 3.4575 14.205 2.2775C14.205 1.23833 13.58 0.3675 12.4658 0.3675C10.69 0.3675 9.09833 5.51167 8.59999 6.73833C8.21416 5.625 6.4075 0 4.81499 0C3.57749 0 2.99666 0.894167 2.99666 2.01917C2.99666 3.39833 4.35749 6.9725 4.85083 8.3475C4.60083 8.2575 4.32999 8.17917 4.05416 8.17917C3.12249 8.17917 2.13166 9.31583 2.13166 10.2342C2.13166 10.5817 2.32666 11.07 2.44999 11.3942C0.981661 11.785 0.416661 12.7458 0.416661 14.195C0.412495 17.015 3.13583 20 6.96416 20ZM10.9892 4.21917C11.1492 3.73833 11.8292 1.7075 12.4658 1.7075C12.8083 1.7075 12.9 2.055 12.9 2.3325C12.9 3.07833 11.3642 7.2 11.025 8.11333L9.67166 7.87917L10.9892 4.21917ZM4.24666 1.8875V1.88667C4.24666 1.42167 4.82416 0.101667 6.08916 3.72667L7.46666 7.645C6.84583 7.59417 6.36416 7.5275 6.05833 7.7C5.62416 6.575 4.24666 3.02417 4.24666 1.8875ZM4.15499 9.53083L4.15583 9.53167C5.32166 9.53167 6.82666 13.2267 6.82666 13.7267C6.82666 13.9258 6.63166 14.1717 6.40499 14.1717C5.57249 14.1717 3.34333 11.1675 3.34333 10.355C3.34666 10.0542 3.84833 9.53083 4.15499 9.53083ZM2.81499 12.5892C3.26833 12.5892 4.97583 14.945 4.97583 15.445C4.97583 15.6367 4.66916 15.7692 4.51083 15.7692C3.86999 15.7692 3.61916 15.1633 2.47749 13.7617C1.29499 14.9217 3.29333 17.1558 4.79833 17.1558C5.83666 17.1558 6.51333 16.2108 6.31083 15.515C6.45833 15.515 6.64083 15.5267 6.77666 15.4917C6.82083 16.55 7.13916 17.8117 8.43666 17.9017C8.43666 17.8667 8.51666 17.6242 8.51666 17.6125C8.51666 16.9325 8.09499 16.3392 8.09499 15.6475C8.09499 14.5417 8.95833 13.4717 9.83416 12.8467C10.1525 12.6125 10.5392 12.4675 10.9125 12.335C11.2992 12.1908 11.7092 12.0225 12.0025 11.7333C11.9583 11.2958 11.7758 10.9092 11.33 10.9092C10.2275 10.9092 6.53 11.0658 6.53 9.35833C6.53 9.09667 6.53416 8.84667 7.22333 8.84667C8.50916 8.84667 11.7733 9.15917 12.7283 9.98333C13.4483 10.6125 13.6958 14.405 11.4942 16.8075L11.4917 16.8083C10.3333 18.0583 8.8525 18.7067 7.125 18.7067C4.76083 18.7067 2.89333 17.4333 1.99416 15.2575C1.31333 13.5625 2.14583 12.5892 2.81499 12.5892ZM7.56583 11.8858C7.95333 12.0075 8.35083 12.0433 8.74916 12.1208C8.45416 12.3317 8.1925 12.59 7.94083 12.8667C7.82916 12.535 7.69333 12.2108 7.56583 11.8858Z" fill="#505F79"/>
</svg>
